svg/new-logo-03.svg

<svg width="337" height="248" viewBox="0 0 337 248" fill="none" xmlns="http://www.w3.org/2000/svg">
<path d="M48.5875 31.5634C26.0316 33.2288 10.9954 40.5181 5.38049 52.5095C-2.14914 68.5884 7.77876 91.971 32.9802 117.513C58.1816 143.056 96.5922 168.666 139.762 188.709C161.138 198.634 183.039 206.893 204.214 213.016C225.389 219.138 245.425 223.004 263.176 224.392C280.927 225.78 296.046 224.664 307.671 221.106C319.296 217.549 327.198 211.62 330.926 203.658C338.456 187.58 328.528 164.197 303.326 138.655C278.125 113.112 239.714 87.5021 196.544 67.4584C169.777 55.0302 142.271 45.2525 116.463 38.9913C90.6546 32.7302 67.3412 30.1789 48.5875 31.5634ZM73.5011 52.0632C90.0234 50.8459 110.567 53.1415 133.312 58.7467C156.057 64.3518 180.302 73.0936 203.898 84.1975C222.74 93.0644 240.753 103.242 256.907 114.148C273.061 125.055 287.039 136.477 298.045 147.763C309.051 159.049 316.869 169.977 321.051 179.924C325.233 189.871 325.699 198.642 322.421 205.736C315.801 220.062 294.335 226.688 262.746 224.156C231.157 221.624 192.032 210.141 153.979 192.234C115.924 174.327 82.0583 151.462 59.8305 128.669C37.6028 105.876 28.8341 85.0227 35.4535 70.696C40.3896 60.0118 53.6303 53.5275 73.5011 52.0632Z" fill="#7A7A7A"/>
<path d="M142.718 24C149.345 24 154.718 18.6274 154.718 12C154.718 5.37258 149.345 0 142.718 0C136.091 0 130.719 5.37258 130.719 12C130.719 18.6274 136.091 24 142.718 24Z" fill="#FF8A00"/>
<path d="M166.334 45.8003C172.961 45.8003 178.333 40.4277 178.333 33.8003C178.333 27.1729 172.961 21.8003 166.334 21.8003C159.707 21.8003 154.335 27.1729 154.335 33.8003C154.335 40.4277 159.707 45.8003 166.334 45.8003Z" fill="#FF8A00"/>
<path d="M189.95 67.6006C196.577 67.6006 201.949 62.228 201.949 55.6006C201.949 48.9732 196.577 43.6006 189.95 43.6006C183.323 43.6006 177.951 48.9732 177.951 55.6006C177.951 62.228 183.323 67.6006 189.95 67.6006Z" fill="#FF8A00"/>
<path d="M137.452 52.8838C144.079 52.8838 149.451 47.5112 149.451 40.8838C149.451 34.2564 144.079 28.8838 137.452 28.8838C130.825 28.8838 125.453 34.2564 125.453 40.8838C125.453 47.5112 130.825 52.8838 137.452 52.8838Z" fill="#FF8A00"/>
<path d="M160.067 73.6841C166.694 73.6841 172.067 68.3115 172.067 61.6841C172.067 55.0567 166.694 49.6841 160.067 49.6841C153.44 49.6841 148.068 55.0567 148.068 61.6841C148.068 68.3115 153.44 73.6841 160.067 73.6841Z" fill="#FF8A00"/>
<path d="M131.381 80.5718C138.008 80.5718 143.381 75.1992 143.381 68.5718C143.381 61.9444 138.008 56.5718 131.381 56.5718C124.754 56.5718 119.382 61.9444 119.382 68.5718C119.382 75.1992 124.754 80.5718 131.381 80.5718Z" fill="#FF8A00"/>
<path d="M4.324 198.257V186.297L57.224 186.389C59.9227 186.389 61.9773 185.776 63.388 184.549C64.86 183.261 65.596 181.206 65.596 178.385C65.596 175.564 64.86 173.54 63.388 172.313C61.9773 171.025 59.9227 170.381 57.224 170.381H24.288C17.48 170.381 12.1747 168.756 8.372 165.505C4.63067 162.193 2.76 157.348 2.76 150.969C2.76 144.59 4.63067 139.776 8.372 136.525C12.1747 133.213 17.48 131.557 24.288 131.557H75.992V143.517L25.852 143.425C23.2147 143.425 21.16 144.038 19.688 145.265C18.216 146.43 17.48 148.332 17.48 150.969C17.48 153.606 18.216 155.538 19.688 156.765C21.16 157.93 23.2147 158.513 25.852 158.513H58.788C65.596 158.513 70.8707 160.2 74.612 163.573C78.4147 166.885 80.316 171.822 80.316 178.385C80.316 184.886 78.4147 189.824 74.612 193.197C70.8707 196.57 65.596 198.257 58.788 198.257H4.324ZM90.5455 197.797V132.017H145.653C152.461 132.017 157.736 133.734 161.477 137.169C165.28 140.604 167.181 145.817 167.181 152.809C167.181 159.801 165.28 165.014 161.477 168.449C157.736 171.884 152.461 173.601 145.653 173.601H105.265V197.797H90.5455ZM143.905 143.977H105.265V161.549L143.905 161.641C146.604 161.641 148.659 160.966 150.069 159.617C151.541 158.268 152.277 155.998 152.277 152.809C152.277 149.558 151.541 147.289 150.069 146.001C148.659 144.652 146.604 143.977 143.905 143.977ZM177.346 197.797V132.017H189.674L220.126 153.361H220.586L251.038 132.017H263.366V197.797H248.646V150.417L227.762 164.401V197.797H213.042V164.401L192.066 150.417V197.797H177.346Z" fill="#FF8A00"/>
</svg>

<svg xmlns="http://www.w3.org/2000/svg" width="337" height="248" fill="none"><path fill="#7A7A7A" d="M48.587 31.563C26.032 33.23 10.995 40.518 5.38 52.51c-7.53 16.078 2.399 39.461 27.6 65.003 25.202 25.543 63.612 51.153 106.782 71.196 21.376 9.925 43.277 18.184 64.452 24.307 21.175 6.122 41.211 9.988 58.962 11.376 17.751 1.388 32.87.272 44.495-3.286 11.625-3.557 19.527-9.486 23.255-17.448 7.53-16.078-2.398-39.461-27.6-65.003-25.201-25.543-63.612-51.153-106.782-71.197-26.767-12.428-54.273-22.206-80.081-28.467-25.808-6.26-49.122-8.812-67.875-7.428Zm24.914 20.5c16.522-1.217 37.066 1.078 59.811 6.684 22.745 5.605 46.99 14.347 70.586 25.45 18.842 8.867 36.855 19.045 53.009 29.951 16.154 10.907 30.132 22.329 41.138 33.615 11.006 11.286 18.824 22.214 23.006 32.161 4.182 9.947 4.648 18.718 1.37 25.812-6.62 14.326-28.086 20.952-59.675 18.42s-70.714-14.015-108.767-31.922c-38.055-17.907-71.92-40.772-94.149-63.565-22.227-22.793-30.996-43.646-24.377-57.973C40.39 60.012 53.63 53.528 73.501 52.063Z"/><path fill="#FF8A00" d="M142.718 24c6.627 0 12-5.373 12-12s-5.373-12-12-12-11.999 5.373-11.999 12 5.372 12 11.999 12ZM166.334 45.8c6.627 0 11.999-5.372 11.999-12 0-6.627-5.372-12-11.999-12-6.627 0-11.999 5.373-11.999 12 0 6.628 5.372 12 11.999 12ZM189.95 67.6c6.627 0 11.999-5.372 11.999-12 0-6.627-5.372-12-11.999-12-6.627 0-11.999 5.373-11.999 12 0 6.628 5.372 12 11.999 12ZM137.452 52.884c6.627 0 11.999-5.373 11.999-12 0-6.628-5.372-12-11.999-12-6.627 0-11.999 5.372-11.999 12 0 6.627 5.372 12 11.999 12ZM160.067 73.684c6.627 0 12-5.373 12-12s-5.373-12-12-12-11.999 5.373-11.999 12 5.372 12 11.999 12ZM131.381 80.572c6.627 0 12-5.373 12-12 0-6.628-5.373-12-12-12s-11.999 5.372-11.999 12c0 6.627 5.372 12 11.999 12ZM4.324 198.257v-11.96l52.9.092c2.699 0 4.753-.613 6.164-1.84 1.472-1.288 2.208-3.343 2.208-6.164 0-2.821-.736-4.845-2.208-6.072-1.41-1.288-3.465-1.932-6.164-1.932H24.288c-6.808 0-12.113-1.625-15.916-4.876-3.741-3.312-5.612-8.157-5.612-14.536s1.87-11.193 5.612-14.444c3.803-3.312 9.108-4.968 15.916-4.968h51.704v11.96l-50.14-.092c-2.637 0-4.692.613-6.164 1.84-1.472 1.165-2.208 3.067-2.208 5.704 0 2.637.736 4.569 2.208 5.796 1.472 1.165 3.527 1.748 6.164 1.748h32.936c6.808 0 12.083 1.687 15.824 5.06 3.803 3.312 5.704 8.249 5.704 14.812 0 6.501-1.901 11.439-5.704 14.812-3.741 3.373-9.016 5.06-15.824 5.06H4.324Zm86.222-.46v-65.78h55.107c6.808 0 12.083 1.717 15.824 5.152 3.803 3.435 5.704 8.648 5.704 15.64 0 6.992-1.901 12.205-5.704 15.64-3.741 3.435-9.016 5.152-15.824 5.152h-40.388v24.196h-14.72Zm53.359-53.82h-38.64v17.572l38.64.092c2.699 0 4.754-.675 6.164-2.024 1.472-1.349 2.208-3.619 2.208-6.808 0-3.251-.736-5.52-2.208-6.808-1.41-1.349-3.465-2.024-6.164-2.024Zm33.441 53.82v-65.78h12.328l30.452 21.344h.46l30.452-21.344h12.328v65.78h-14.72v-47.38l-20.884 13.984v33.396h-14.72v-33.396l-20.976-13.984v47.38h-14.72Z"/></svg>
